icons/caret-double-downright.svg

<svg width="24" height="24" viewBox="0 0 24 24" fill="none" xmlns="http://www.w3.org/2000/svg">
<path fill-rule="evenodd" clip-rule="evenodd" d="M12.2026 5.46775C12.4381 5.56868 12.8197 5.85156 12.8197 6.3696V11.8696C12.8197 12.1635 12.6803 12.3947 12.5375 12.5374C12.3947 12.6802 12.1636 12.8196 11.8697 12.8196H6.36967C5.99362 12.8196 5.65445 12.6162 5.48635 12.28C5.32718 11.9617 5.36049 11.6109 5.49885 11.3342L5.55328 11.2253L11.1393 5.63927C11.3424 5.43622 11.5887 5.38691 11.7466 5.38106C11.913 5.37489 12.07 5.41089 12.2026 5.46775ZM11.3197 7.58026L7.58033 11.3196H11.3197V7.58026Z" fill="black"/>
<path fill-rule="evenodd" clip-rule="evenodd" d="M18.0027 11.2678C18.2382 11.3687 18.6197 11.6516 18.6197 12.1697V17.6697C18.6197 17.9636 18.4803 18.1947 18.3376 18.3375C18.1948 18.4802 17.9636 18.6197 17.6697 18.6197H12.1697C11.7937 18.6197 11.4545 18.4162 11.2864 18.0801C11.1272 17.7617 11.1605 17.411 11.2989 17.1342L11.3533 17.0254L16.9394 11.4393C17.1424 11.2363 17.3887 11.187 17.5467 11.1811C17.7131 11.1749 17.87 11.2109 18.0027 11.2678ZM17.1197 13.3803L13.3804 17.1197H17.1197V13.3803Z" fill="black"/>
</svg>

<svg xmlns="http://www.w3.org/2000/svg" fill="none" viewBox="0 0 24 24">
  <path fill="#000" fill-rule="evenodd" d="M12.203 5.468c.235.1.617.384.617.902v5.5a.95.95 0 0 1-.283.667.95.95 0 0 1-.667.283h-5.5a.978.978 0 0 1-.884-.54 1.055 1.055 0 0 1 .013-.946l.054-.109L11.14 5.64a.902.902 0 0 1 .608-.258c.166-.006.323.03.456.087ZM11.32 7.58l-3.74 3.74h3.74V7.58Zm6.683 3.688c.235.1.617.384.617.902v5.5a.95.95 0 0 1-.282.667.95.95 0 0 1-.668.283h-5.5a.978.978 0 0 1-.884-.54 1.058 1.058 0 0 1 .013-.946l.054-.109 5.586-5.586a.902.902 0 0 1 .608-.258c.166-.006.323.03.456.087Zm-.883 2.112-3.74 3.74h3.74v-3.74Z" clip-rule="evenodd"/>
</svg>
